X:1
T:Title
%%score { ( 1 3 4 ) | 2 }
L:1/8
M:4/4
K:C
V:1 treble nm="Grand Piano"
V:3 treble 
V:4 treble 
V:2 bass 
V:1
 z4 z2[Q:1/4=92] [EG][EG] | [Ec][Ec][Ec][Ec] [Ec][EG][CE][EG] | AAAA A2 ^GA | BBBB BAFA | %4
 [FA][EG][EG][DF] [CE]2 [EG][EG] | [Ec][Ec][Ec][Ec] [Ec][EG][CE][EG] | AAAA [Ac]2 [FA][FA] | %7
[M:17/16] [EG][CE][EG][Ec][Ge][Ge]3/2[Gc][GB] |[M:7/8] Adc B [Ec]3 |[M:1/4] [EG][Ec] | %10
[M:4/4] B6 z2 | G6 z2 | [B,DF][B,DF][B,DF][B,D] [CE][EG][Ec][Ge] | %13
 [^Fd]>[Fc] [DFB][CFA] [B,G]2 [CG][B,=FG] | [Ec][Ec][Ge][Ge] d2 GG |[M:9/8] ccc c B2- BA[FB] | %16
[M:4/4] [Ec][Ec][EG][DF] [CE][EG][Ec][Ge] |[M:7/8] ddc B [Ec]3 |] %18
V:2
 z4 z2 [C,C][C,C] | [C,G,][C,G,][C,G,][C,G,] [C,G,][C,C][C,G,][C,C] | %2
 [F,CF][F,CF][F,CF][F,CF] [F,CF]2 [F,B,F][F,CF] | %3
 [G,F][G,DF][G,DF][G,DF] [G,DF][G,CF][G,B,D][G,B,F] | [C,C][C,C][C,C][C,G,] [C,G,]2 [C,C][C,C] | %5
 [C,G,][C,G,][C,G,][C,G,] [C,G,][C,C][C,G,][C,C] | [F,CF][F,CF][F,CF][F,CF] [F,C]2 [F,C][F,C] | %7
[M:17/16] [C,C][C,G,][C,G,][C,G,][C,C][C,C]3/2[E,C][E,C] | %8
[M:7/8] [F,CF][F,A,F][G,E] [G,D] [C,G,]3 |[M:1/4] [C,C][C,C] | %10
[M:4/4][K:treble] [G,DF][G,D][G,D][G,D] [G,D]2 [G,B,D][G,B,F] | %11
 [C,C][C,C][C,C][C,C] [C,C]2 [C,G,C][C,C] | [G,,G,][G,,G,][G,,G,][G,,G,] [C,G,][C,C][C,C][C,C] | %13
 [D,A,]>[D,A,] D,D, G,F,E,D, | [C,C][C,C][C,C][C,C][K:treble] [G,B,G]2 [G,B,F][G,B,F] | %15
[M:9/8] [A,E][A,E][K:bass][A,E] [A,E] [E,^G,D]2- [E,G,D][F,A,C][D,=G,] | %16
[M:4/4] [C,G,][C,G,][C,G,][C,G,] [C,G,][C,C][C,C][C,C] | %17
[M:7/8] [F,A,F][F,A,F][G,E] [G,D] [C,G,]3 |] %18
V:3
 x8 | x8 | x8 | x8 | x8 | x8 | x8 |[M:17/16] x17/2 |[M:7/8] x7 |[M:1/4] x2 |[M:4/4] z FFF z AFA | %11
 EEEE E2 E[EG] | x8 | x8 | x8 |[M:9/8] x9 |[M:4/4] x8 |[M:7/8] x7 |] %18
V:4
 x8 | x8 | x8 | x8 | x8 | x8 | x8 |[M:17/16] x17/2 |[M:7/8] x7 |[M:1/4] x2 |[M:4/4] z4 F2 z2 | x8 | %12
 x8 | x8 | x8 |[M:9/8] x9 |[M:4/4] x8 |[M:7/8] x7 |] %18

